images/ico_step1.svg

<svg width="70" height="87" viewBox="0 0 70 87" fill="none" xmlns="http://www.w3.org/2000/svg">
<path d="M24.5714 6H18.4286C17.5714 6 17 6.6 17 7.5C17 8.4 17.5714 9 18.4286 9H24.5714C25.4286 9 26 8.4 26 7.5C26 6.6 25.2857 6 24.5714 6Z" fill="url(#paint0_linear)"/>
<path d="M21.5 66C24.0312 66 26 64.0312 26 61.5C26 58.9688 24.0312 57 21.5 57C18.9687 57 17 58.9688 17 61.5C17 64.0312 19.1094 66 21.5 66ZM21.5 59.8125C22.4844 59.8125 23.1875 60.5156 23.1875 61.5C23.1875 62.4844 22.4844 63.1875 21.5 63.1875C20.5156 63.1875 19.8125 62.4844 19.8125 61.5C19.8125 60.6562 20.6562 59.8125 21.5 59.8125Z" fill="url(#paint1_linear)"/>
<path d="M66.0707 19.921H43.659V5.27799C43.659 2.34939 41.3306 0.00650941 38.42 0.00650941H5.23909C2.32848 -0.13992 0 2.20296 0 5.13156V64.7285C0 67.6571 2.32848 70 5.23909 70H38.42C41.3306 70 43.659 67.6571 43.659 64.7285V47.7427H53.7006L60.395 55.357C60.6861 55.6499 61.2682 56.0892 61.9958 55.7963C62.578 55.5034 62.869 55.0641 63.0146 54.4784L63.4511 47.8891H66.2162C68.2536 47.8891 70 46.1319 70 44.0819V23.7282C69.8545 21.5317 68.1081 19.921 66.0707 19.921ZM2.9106 5.13156C2.9106 3.81369 3.92931 2.78868 5.23909 2.78868H38.42C39.7297 2.78868 40.7484 3.81369 40.7484 5.13156V12.3066H2.9106V5.13156ZM40.7484 64.875C40.7484 66.1928 39.7297 67.2178 38.42 67.2178H5.23909C3.92931 67.2178 2.9106 66.1928 2.9106 64.875V56.2356H40.7484V64.875ZM40.7484 53.307H2.9106V15.2352H40.7484V19.921H34.0541C32.0166 19.921 30.2703 21.6781 30.2703 23.7282V44.0819C30.2703 46.1319 32.0166 47.8891 34.0541 47.8891H40.7484V53.307ZM66.9439 43.9355C66.9439 44.3748 66.5073 44.8141 66.0707 44.8141H61.9958C61.2682 44.8141 60.5405 45.3998 60.5405 46.1319L60.2495 50.6713L55.447 45.2533C55.1559 44.9605 54.7193 44.8141 54.4283 44.8141H34.0541C33.6175 44.8141 33.1809 44.3748 33.1809 43.9355V23.7282C33.1809 23.2889 33.6175 22.8496 34.0541 22.8496H66.0707C66.5073 22.8496 66.9439 23.2889 66.9439 23.7282V43.9355Z" fill="url(#paint2_linear)"/>
<path d="M37.6103 30.94L37.5303 31.02C37.1303 31.38 37.1103 31.87 37.5003 32.26L39.3103 34.07L37.5003 35.88C37.1103 36.27 37.1303 36.76 37.5303 37.12L37.6103 37.2C38.0103 37.56 38.5303 37.55 38.9203 37.16L41.3703 34.71C41.5603 34.52 41.6603 34.31 41.6603 34.07C41.6603 33.84 41.5603 33.62 41.3703 33.43L38.9203 30.98C38.5303 30.59 38.0103 30.58 37.6103 30.94Z" fill="#CADFED"/>
<path d="M48.9519 31.06C48.9519 29.86 48.1919 29.31 47.0619 29.7L45.8919 30.1C45.3219 30.29 45.0719 30.8 45.2719 31.37C45.4619 31.9 45.9719 32.15 46.5319 31.95L46.9519 31.8V36C46.9519 36.6 47.3519 37 47.9519 37C48.5519 37 48.9519 36.6 48.9519 36V31.06Z" fill="#CADFED"/>
<path d="M49.2499 33.31C49.2499 35.82 50.3199 37.13 52.3299 37.13C54.3399 37.13 55.4099 35.82 55.4099 33.31C55.4099 30.79 54.3399 29.48 52.3299 29.48C50.3199 29.48 49.2499 30.79 49.2499 33.31ZM53.4099 33.31C53.4099 34.66 53.0499 35.33 52.3299 35.33C51.6099 35.33 51.2499 34.66 51.2499 33.31C51.2499 31.96 51.6099 31.28 52.3299 31.28C53.0499 31.28 53.4099 31.96 53.4099 33.31Z" fill="#CADFED"/>
<path d="M55.7147 33.31C55.7147 35.82 56.7847 37.13 58.7947 37.13C60.8047 37.13 61.8748 35.82 61.8748 33.31C61.8748 30.79 60.8047 29.48 58.7947 29.48C56.7847 29.48 55.7147 30.79 55.7147 33.31ZM59.8747 33.31C59.8747 34.66 59.5147 35.33 58.7947 35.33C58.0747 35.33 57.7147 34.66 57.7147 33.31C57.7147 31.96 58.0747 31.28 58.7947 31.28C59.5147 31.28 59.8747 31.96 59.8747 33.31Z" fill="#CADFED"/>
<defs>
<linearGradient id="paint0_linear" x1="23.4732" y1="6.20845" x2="23.2447" y2="9.33595" gradientUnits="userSpaceOnUse">
<stop stop-color="white" stop-opacity="0.599468"/>
<stop offset="1" stop-color="white"/>
</linearGradient>
<linearGradient id="paint1_linear" x1="23.4732" y1="57.6254" x2="21.5" y2="66.6254" gradientUnits="userSpaceOnUse">
<stop stop-color="white" stop-opacity="0.599468"/>
<stop offset="1" stop-color="white"/>
</linearGradient>
<linearGradient id="paint2_linear" x1="50.3472" y1="4.86391" x2="35.0002" y2="74.8639" gradientUnits="userSpaceOnUse">
<stop stop-color="white" stop-opacity="0.599468"/>
<stop offset="1" stop-color="white"/>
</linearGradient>
</defs>
</svg>

<svg width="70" height="87" fill="none" xmlns="http://www.w3.org/2000/svg"><path d="M24.571 6H18.43C17.57 6 17 6.6 17 7.5S17.571 9 18.429 9h6.142C25.43 9 26 8.4 26 7.5S25.286 6 24.571 6z" fill="url(#paint0_linear)"/><path d="M21.5 66c2.531 0 4.5-1.969 4.5-4.5 0-2.531-1.969-4.5-4.5-4.5-2.531 0-4.5 1.969-4.5 4.5 0 2.531 2.11 4.5 4.5 4.5zm0-6.188c.984 0 1.688.704 1.688 1.688s-.704 1.688-1.688 1.688-1.688-.704-1.688-1.688c0-.844.844-1.688 1.688-1.688z" fill="url(#paint1_linear)"/><path d="M66.07 19.921H43.66V5.278c0-2.929-2.328-5.271-5.239-5.271H5.24C2.327-.14 0 2.203 0 5.132v59.596C0 67.659 2.328 70 5.24 70h33.18c2.91 0 5.239-2.343 5.239-5.272V47.743h10.042l6.694 7.614c.291.293.873.732 1.6.44.583-.294.874-.733 1.02-1.319l.436-6.589h2.765c2.038 0 3.784-1.757 3.784-3.807V23.728c-.145-2.196-1.892-3.807-3.93-3.807zM2.91 5.131c0-1.317 1.02-2.342 2.33-2.342h33.18c1.31 0 2.328 1.025 2.328 2.343v7.175H2.911V5.132zm37.838 59.744c0 1.318-1.018 2.343-2.328 2.343H5.24c-1.31 0-2.33-1.025-2.33-2.343v-8.64h37.838v8.64zm0-11.568H2.911V15.235h37.837v4.686h-6.694c-2.037 0-3.784 1.757-3.784 3.807v20.354c0 2.05 1.747 3.807 3.784 3.807h6.694v5.418zm26.196-9.372c0 .44-.437.88-.873.88h-4.075c-.728 0-1.456.585-1.456 1.317l-.29 4.54-4.803-5.419a1.568 1.568 0 00-1.019-.439H34.054c-.437 0-.873-.44-.873-.879V23.728c0-.44.437-.878.873-.878h32.017c.436 0 .873.439.873.878v20.207z" fill="url(#paint2_linear)"/><path d="M37.61 30.94l-.08.08c-.4.36-.42.85-.03 1.24l1.81 1.81-1.81 1.81c-.39.39-.37.88.03 1.24l.08.08c.4.36.92.35 1.31-.04l2.45-2.45c.19-.19.29-.4.29-.64 0-.23-.1-.45-.29-.64l-2.45-2.45c-.39-.39-.91-.4-1.31-.04zm11.342.12c0-1.2-.76-1.75-1.89-1.36l-1.17.4c-.57.19-.82.7-.62 1.27.19.53.7.78 1.26.58l.42-.15V36c0 .6.4 1 1 1s1-.4 1-1v-4.94zm.298 2.25c0 2.51 1.07 3.82 3.08 3.82s3.08-1.31 3.08-3.82c0-2.52-1.07-3.83-3.08-3.83s-3.08 1.31-3.08 3.83zm4.16 0c0 1.35-.36 2.02-1.08 2.02-.72 0-1.08-.67-1.08-2.02s.36-2.03 1.08-2.03c.72 0 1.08.68 1.08 2.03zm2.305 0c0 2.51 1.07 3.82 3.08 3.82s3.08-1.31 3.08-3.82c0-2.52-1.07-3.83-3.08-3.83s-3.08 1.31-3.08 3.83zm4.16 0c0 1.35-.36 2.02-1.08 2.02-.72 0-1.08-.67-1.08-2.02s.36-2.03 1.08-2.03c.72 0 1.08.68 1.08 2.03z" fill="#CADFED"/><defs><linearGradient id="paint0_linear" x1="23.473" y1="6.208" x2="23.245" y2="9.336" gradientUnits="userSpaceOnUse"><stop stop-color="#fff" stop-opacity=".599"/><stop offset="1" stop-color="#fff"/></linearGradient><linearGradient id="paint1_linear" x1="23.473" y1="57.625" x2="21.5" y2="66.625" gradientUnits="userSpaceOnUse"><stop stop-color="#fff" stop-opacity=".599"/><stop offset="1" stop-color="#fff"/></linearGradient><linearGradient id="paint2_linear" x1="50.347" y1="4.864" x2="35" y2="74.864" gradientUnits="userSpaceOnUse"><stop stop-color="#fff" stop-opacity=".599"/><stop offset="1" stop-color="#fff"/></linearGradient></defs></svg>
